X: 1
T:Polska fr Stora Skedvi
R:Polska
O:Sweden
M:3/4
C:e. Ingels Jan
A:Dalarna
K:DDor
A,>>a a2 c'>a|^g>b a3 f|f>f fg eg|\
g^f df/d/ ^ce|1 ed B<^c A2 :|2 e^f d4 :|
A2 de fd|^cd ef/e/ dc|A2 de fd|^cd ef/e/ d2|\
A,>>a a2 c'>a|^g>b a3 f|f>f fg eg|
g^f df/d/ ^ce|e^f d4||\
A2 de fd|^cd efe dc|AA cc ee|dd Bc/B/ A2|
A,>>a a2 c'>a|^g>b a3 f|f>f fg eg|\
g^f df/d/ ^ce|e^f d4|]
